src/images/mediaLogos/lightTheme/FutureVehicle.svg

<svg width="92" height="19" viewBox="0 0 92 19" fill="none" xmlns="http://www.w3.org/2000/svg">
<path d="M20.2321 2.73795H36.8898C37.4189 2.73795 37.6498 2.88356 37.7551 3.27656C37.8735 3.70508 37.6474 4.08388 37.213 4.16201C37.0171 4.19064 36.8189 4.20134 36.6211 4.19397C25.7622 4.19397 14.9036 4.19397 4.04552 4.19397C3.43233 4.19397 2.87952 4.3005 2.42141 4.74441C2.22391 4.92886 2.06577 5.15137 1.95653 5.39855C1.84728 5.64572 1.78919 5.91245 1.78574 6.18266C1.76798 6.96157 1.78574 7.74166 1.77509 8.52057C1.77509 8.75022 1.86387 8.80467 2.07339 8.8023C2.79311 8.79283 3.51283 8.7952 4.23255 8.8023C4.76878 8.8023 5.06117 9.28527 4.83271 9.76942C4.79552 9.86113 4.73053 9.93888 4.64688 9.99175C4.56322 10.0446 4.4651 10.0699 4.36631 10.0642C3.62765 10.0571 2.88663 10.0748 2.14797 10.0642C1.86387 10.0583 1.7739 10.153 1.77509 10.4359C1.78337 12.685 1.77508 14.9341 1.78455 17.1832C1.78455 17.5111 1.71235 17.7668 1.39629 17.903C1.02577 18.0639 0.649341 18.0568 0.351037 17.7846C0.232662 17.6733 0.180575 17.4354 0.179392 17.2543C0.169922 14.0392 0.167554 10.8237 0.172289 7.6079C0.172289 7.1344 0.172289 6.6609 0.172289 6.1874C0.198332 4.71126 1.27436 3.27774 2.69367 2.88237C3.07654 2.78836 3.4703 2.74615 3.8644 2.75689C9.31912 2.74032 14.775 2.73401 20.2321 2.73795Z" fill="#737373"/>
<path d="M61.7827 10.0802C62.461 9.05275 63.3784 8.59464 64.5242 8.7071C65.708 8.82547 66.5615 9.49311 67.1451 10.5182C67.4744 11.1153 67.641 11.7885 67.628 12.4702C67.628 14.0482 67.628 15.6273 67.628 17.2052C67.628 17.7474 67.3652 17.9261 66.8314 17.9557C66.2975 17.9853 66.0158 17.7036 66.0146 17.1875C66.0146 15.619 66.0146 14.0505 66.0146 12.4821C66.0146 11.5351 65.5813 10.8414 64.7563 10.3857C63.6826 9.79378 62.4219 10.3857 62.0064 11.3729C61.8648 11.7013 61.7865 12.0536 61.7756 12.411C61.7507 14.0186 61.7649 15.6261 61.7637 17.2336C61.7637 17.6787 61.4619 17.9569 60.9635 17.9534C60.5007 17.9534 60.1598 17.6953 60.1621 17.2372C60.174 12.8471 60.1763 8.45733 60.1692 4.06799C60.1692 3.44297 60.7362 3.08666 61.3222 3.34235C61.4636 3.3901 61.5848 3.48399 61.6664 3.60894C61.748 3.73389 61.7852 3.88265 61.772 4.03129C61.7566 5.91464 61.7637 7.79916 61.7649 9.68369C61.7637 9.79733 61.7744 9.90979 61.7827 10.0802Z" fill="#3A3A3A"/>
<path d="M87.5395 13.8641C86.8589 13.8641 86.1782 13.8712 85.4976 13.8641C85.2525 13.8641 85.1697 13.9564 85.1673 14.1944C85.1483 15.751 86.0764 16.6151 87.6449 16.7525C88.451 16.8235 89.166 16.5737 89.8313 16.1345C90.0597 15.9842 90.3119 15.9321 90.5498 16.1345C90.7877 16.337 90.9499 16.5915 90.8232 16.8566C90.6914 17.1344 90.4822 17.3683 90.2207 17.5302C89.2737 18.0566 88.1769 18.2484 87.1074 18.0747C86.2409 17.9563 85.4502 17.6734 84.7909 17.0993C84.1587 16.5524 83.716 15.8765 83.6604 15.0254C83.5976 14.0653 83.5183 13.097 83.5846 12.1406C83.703 10.4833 84.9222 9.08769 86.6872 8.77873C88.1491 8.52304 89.3838 8.94919 90.3225 10.0903C90.667 10.4914 90.9059 10.9721 91.0178 11.4888C91.1296 12.0056 91.1107 12.5421 90.9629 13.0497C90.9211 13.2555 90.8111 13.4411 90.6506 13.5764C90.4901 13.7118 90.2885 13.789 90.0787 13.7955C89.2335 13.8475 88.3871 13.8677 87.5407 13.902L87.5395 13.8641ZM87.1844 12.7668C87.7455 12.7668 88.3078 12.7561 88.8701 12.7668C89.5377 12.7822 89.6442 12.3051 89.5353 11.8506C89.5235 11.8032 89.4974 11.7594 89.4891 11.7121C89.2098 10.2087 87.575 9.58131 86.2859 10.2631C85.2904 10.7887 85.1116 11.7263 85.1768 12.6235C85.1768 12.6756 85.3283 12.7561 85.4135 12.7585C85.9995 12.7727 86.5913 12.7656 87.1832 12.7656L87.1844 12.7668Z" fill="#3A3A3A"/>
<path d="M55.3353 13.8636C54.6452 13.8636 53.9539 13.8719 53.2638 13.8636C53.0424 13.8636 52.9903 13.9346 52.9761 14.1513C52.8708 15.8298 54.0521 16.6454 55.4075 16.7555C56.1247 16.8183 56.8422 16.6382 57.4448 16.2441C57.9869 15.8997 58.155 15.9151 58.4877 16.3033C58.754 16.6135 58.7362 16.8289 58.4675 17.1462C58.1124 17.5617 57.6389 17.757 57.1405 17.912C56.2809 18.1816 55.3652 18.2188 54.4866 18.0198C52.7997 17.641 51.3792 16.4347 51.3911 14.4224C51.3911 13.7713 51.4148 13.1202 51.3911 12.4692C51.3177 10.7977 52.4482 9.43048 53.8769 8.91792C55.5685 8.30947 57.4838 8.93449 58.3882 10.4568C58.8534 11.2404 59.0192 12.0856 58.8013 12.977C58.7007 13.3925 58.4012 13.7476 57.9135 13.7808C57.0589 13.8399 56.2006 13.8577 55.3448 13.8932L55.3353 13.8636ZM53.0057 12.7497C53.0862 12.7556 53.1632 12.7651 53.2425 12.7651C54.3647 12.7651 55.4872 12.7651 56.6102 12.7651C57.2246 12.7651 57.3891 12.5639 57.3288 12.0205C57.3086 11.8385 57.2721 11.6586 57.2199 11.4831C56.7961 10.0212 55.0773 9.63527 53.9669 10.3301C53.0566 10.9007 52.8933 11.7601 53.0057 12.7497Z" fill="#3A3A3A"/>
<path d="M39.0063 13.8698C38.3256 13.8698 37.6449 13.8769 36.9655 13.8698C36.7358 13.8698 36.6707 13.942 36.6565 14.1741C36.5523 15.8313 37.729 16.6315 39.0678 16.7463C39.7598 16.813 40.4546 16.6499 41.0447 16.2823C41.1585 16.2085 41.2771 16.1425 41.3998 16.0846C41.5276 16.0137 41.6777 15.9945 41.8192 16.0308C41.9608 16.0671 42.0831 16.1563 42.1609 16.2799C42.3835 16.5747 42.3977 16.8446 42.168 17.1157C41.8129 17.5395 41.3394 17.7478 40.828 17.9076C39.95 18.1848 39.0134 18.2196 38.1173 18.0082C36.8885 17.7277 35.8942 17.0873 35.3556 15.9059C35.1906 15.5202 35.0964 15.108 35.0774 14.689C35.0324 13.9326 35.0608 13.1714 35.0585 12.4126C35.0585 10.8193 35.848 9.71961 37.2389 9.05434C39.1992 8.11681 41.556 9.03067 42.3148 10.9957C42.5784 11.629 42.6279 12.331 42.4557 12.995C42.3302 13.4543 42.0284 13.7645 41.5418 13.7964C40.6978 13.8533 39.8503 13.8722 39.0039 13.9065L39.0063 13.8698ZM36.7086 12.7654H37.9918C38.8003 12.7654 39.6088 12.7654 40.4173 12.7595C40.8434 12.7595 41.021 12.5784 41.0092 12.1676C40.9992 11.9036 40.9542 11.6421 40.8754 11.3899C40.538 10.347 39.2016 9.70304 38.1776 10.0736C37.0057 10.4914 36.4529 11.4917 36.7086 12.7654Z" fill="#737373"/>
<path d="M27.8913 12.0438C27.8913 12.8038 27.8996 13.5637 27.8913 14.3225C27.8877 15.1616 27.6074 15.976 27.0937 16.6395C26.58 17.303 25.8618 17.7785 25.0503 17.9921C22.8734 18.6089 20.6705 17.0392 20.3568 14.9901C20.3103 14.6988 20.285 14.4044 20.281 14.1094C20.2727 12.6096 20.281 11.111 20.281 9.61119C20.281 9.19333 20.4207 8.98144 20.7675 8.86188C21.1511 8.72812 21.5808 8.82045 21.7785 9.12704C21.8602 9.28124 21.8986 9.45467 21.8897 9.62895C21.898 11.1785 21.8897 12.7268 21.8968 14.2752C21.8968 15.2328 22.3206 15.9656 23.1575 16.4142C24.243 16.9954 25.6328 16.4462 26.0648 15.2707C26.1967 14.9125 26.2679 14.5348 26.2755 14.1532C26.2992 12.6238 26.2838 11.0956 26.2862 9.56621C26.2862 9.06785 26.5632 8.80388 27.0769 8.80033C27.5907 8.79677 27.8913 9.08206 27.8925 9.58515C27.8933 10.4059 27.8929 11.2254 27.8913 12.0438Z" fill="#737373"/>
<path d="M13.1858 12.1606C13.1858 12.9005 13.1858 13.6403 13.1858 14.3802C13.1941 15.874 12.4649 16.9477 11.2101 17.6509C9.21666 18.7671 6.6787 17.8012 5.88322 15.6479C5.74145 15.2644 5.66425 14.86 5.65476 14.4512C5.6299 12.8034 5.64292 11.1568 5.64411 9.50903C5.64411 9.07578 5.95543 8.79878 6.43248 8.79878C6.88704 8.79878 7.24217 9.10892 7.24217 9.50903C7.24217 11.1556 7.24217 12.8034 7.24217 14.4512C7.24809 15.6598 8.33122 16.6908 9.53509 16.6459C10.3318 16.6163 11.2125 15.9474 11.4445 15.1638C11.526 14.8926 11.5687 14.6112 11.5711 14.3281C11.583 12.7489 11.5771 11.171 11.5782 9.59307C11.5782 9.20954 11.7262 8.98345 12.0517 8.86625C12.4447 8.72302 12.8721 8.79641 13.0792 9.07814C13.1486 9.19364 13.1824 9.32707 13.1763 9.46168C13.1893 10.3661 13.1858 11.2633 13.1858 12.1606Z" fill="#737373"/>
<path d="M46.9284 15.4972C47.1155 15.0071 47.3072 14.5182 47.4895 14.0258C47.8589 13.0279 48.2223 12.0276 48.5928 11.0297C48.8295 10.3846 49.0817 9.74182 49.3231 9.09786C49.4107 8.86111 49.593 8.7309 49.8215 8.79008C50.1207 8.8633 50.4072 8.98101 50.6714 9.13929C50.9082 9.28371 50.862 9.56544 50.778 9.78443C50.3826 10.819 49.9695 11.8477 49.5623 12.8788C49.0888 14.0791 48.6153 15.279 48.1418 16.4785C48.0009 16.8337 47.8624 17.1888 47.7346 17.5557C47.5676 18.0221 47.074 18.2482 46.5721 18.1074C46.2608 18.0186 46.133 17.7925 46.03 17.525C45.6748 16.6064 45.3197 15.6886 44.9646 14.7716C44.4911 13.5606 44.0105 12.352 43.5358 11.141C43.3677 10.7089 43.2126 10.271 43.0434 9.83888C42.8611 9.36538 42.925 9.14994 43.3488 8.92858C43.516 8.84619 43.6978 8.79752 43.8838 8.78535C44.291 8.75694 44.3881 8.84454 44.5266 9.2044C44.8912 10.1455 45.2203 11.0984 45.5695 12.0454C45.9956 13.1972 46.4301 14.3478 46.861 15.4984L46.9284 15.4972Z" fill="#3A3A3A"/>
<path d="M72.3203 13.4083C72.3712 12.7726 72.3807 12.131 72.4789 11.5024C72.6553 10.3779 73.246 9.50545 74.3126 9.06864C75.7532 8.47677 77.1926 8.49689 78.5492 9.34564C78.9872 9.61909 79.134 9.99552 78.8854 10.4264C78.6368 10.8573 78.3693 10.9366 77.968 10.6691C77.4141 10.2858 76.7457 10.1036 76.074 10.153C75.1696 10.2145 74.457 10.5708 74.1196 11.4551C74.0271 11.7143 73.9783 11.9872 73.9752 12.2624C73.9563 13.0117 73.9432 13.7622 73.9752 14.5115C74.0308 15.8278 74.7363 16.5499 76.0929 16.6529C76.8517 16.7109 77.5063 16.4576 78.1361 16.0693C78.5291 15.8326 79.0476 16.1273 79.1079 16.5914C79.1612 16.9974 78.9387 17.2472 78.6344 17.446C77.7099 18.058 76.6824 18.1965 75.6052 18.0829C74.8713 18.0059 74.1847 17.7881 73.5999 17.317C73.1305 16.9248 72.781 16.4083 72.5914 15.8267C72.3049 15.0418 72.3795 14.2239 72.3203 13.4083Z" fill="#3A3A3A"/>
<path d="M14.8884 10.9057C14.8884 9.38655 14.8884 7.8678 14.8884 6.34944C14.8884 5.87594 15.182 5.60605 15.6732 5.60841C16.187 5.60841 16.4841 5.88778 16.4841 6.3672C16.4841 7.0881 16.4912 7.80782 16.4841 8.52754C16.4841 8.7347 16.548 8.80217 16.754 8.7998C17.4157 8.78915 18.0763 8.7927 18.7368 8.7998C18.8531 8.79898 18.9674 8.82938 19.068 8.88782C19.1685 8.94626 19.2515 9.0306 19.3083 9.13205C19.3651 9.23349 19.3937 9.34833 19.391 9.46458C19.3884 9.58083 19.3546 9.69424 19.2931 9.79297C19.2527 9.87703 19.1883 9.94727 19.1081 9.99486C19.0278 10.0425 18.9353 10.0653 18.8421 10.0605C18.152 10.0487 17.4607 10.0605 16.7706 10.0522C16.5468 10.0522 16.4841 10.1244 16.4853 10.341C16.4924 11.9687 16.4853 13.5963 16.4924 15.224C16.4924 16.1568 16.9908 16.4729 17.7472 16.532C18.0407 16.5545 18.339 16.5391 18.6338 16.5451C19.0351 16.5545 19.3156 16.796 19.344 17.1511C19.3784 17.6057 19.1807 17.9099 18.7451 17.9383C17.7815 17.9999 16.8179 18.0023 15.9562 17.4566C15.7075 17.307 15.4942 17.1055 15.3308 16.8659C15.1673 16.6262 15.0576 16.354 15.0092 16.068C14.9379 15.6936 14.8983 15.3139 14.8908 14.9328C14.8766 13.594 14.8884 12.2481 14.8884 10.9057Z" fill="#737373"/>
<path d="M81.9634 10.6157V17.1843C81.9634 17.7004 81.6841 17.9656 81.1585 17.9561C80.6518 17.9467 80.3606 17.6602 80.3594 17.1678C80.3594 12.7982 80.3575 8.42894 80.3535 4.06011C80.3535 3.66474 80.5287 3.43628 80.8661 3.31672C81.2034 3.19716 81.7421 3.34394 81.8841 3.5949C81.9457 3.73765 81.9717 3.89324 81.9599 4.04828C81.9646 6.23663 81.9658 8.42578 81.9634 10.6157Z" fill="#3A3A3A"/>
<path d="M31.0962 10.0859C31.4975 9.62068 31.9071 9.21347 32.4492 8.95068C33.0506 8.65829 33.6886 8.64409 34.3279 8.70328C34.683 8.73642 34.8795 9.10693 34.844 9.54611C34.8338 9.70903 34.7624 9.86208 34.644 9.97451C34.5257 10.0869 34.3692 10.1504 34.2059 10.1522C33.7253 10.1617 33.2388 10.1084 32.7854 10.3203C31.7864 10.7808 31.2466 11.5833 31.2158 12.6558C31.1661 14.1142 31.1625 15.5761 31.2158 17.0357C31.2383 17.7104 30.6914 18.1011 30.0782 17.9188C29.7965 17.8347 29.6142 17.6737 29.581 17.3719C29.5702 17.274 29.5646 17.1756 29.5645 17.0771C29.5645 14.6023 29.5645 12.1267 29.5645 9.65028C29.5645 8.95778 30.038 8.6358 30.689 8.869C30.8144 8.90056 30.9247 8.97504 31.0008 9.07949C31.0769 9.18395 31.114 9.31177 31.1057 9.44075C31.0927 9.65383 31.0962 9.86927 31.0962 10.0859Z" fill="#737373"/>
<path d="M69.2695 13.3564C69.2695 12.074 69.2695 10.7924 69.2695 9.51161C69.2695 9.03811 69.5299 8.80728 70.0389 8.80136C70.5479 8.79544 70.8675 9.07362 70.8675 9.51161C70.8675 12.0851 70.8675 14.6578 70.8675 17.2297C70.8675 17.6617 70.5313 17.9695 70.0507 17.9517C69.6104 17.9364 69.2493 17.7481 69.26 17.2249C69.286 15.937 69.2695 14.6455 69.2695 13.3564Z" fill="#3A3A3A"/>
<path d="M40.4457 6.77629C40.0906 6.75972 39.9154 6.54901 39.8018 6.28859C39.6727 5.9962 39.8586 5.77721 40.0385 5.58662C40.512 5.08708 40.9855 4.57452 41.5075 4.11641C41.9562 3.71985 41.9361 3.23333 41.5075 2.83914C40.9867 2.36564 40.4966 1.85545 40.0113 1.34525C39.8219 1.14757 39.6644 0.915552 39.8349 0.607777C39.9805 0.342617 40.1817 0.170973 40.4895 0.231344C40.6499 0.266551 40.7971 0.346126 40.9145 0.460992C41.7644 1.30224 42.6076 2.15139 43.4442 3.00842C43.7377 3.30909 43.7377 3.67605 43.4442 3.97909C42.6013 4.8377 41.751 5.68843 40.8932 6.53125C40.7712 6.64489 40.5949 6.69698 40.4457 6.77629Z" fill="#737373"/>
<path d="M37.5321 6.7742C37.4072 6.77163 37.2857 6.73292 37.1823 6.66275C37.079 6.59258 36.9982 6.49397 36.9497 6.37883C36.8916 6.26317 36.8718 6.13206 36.8931 6.0044C36.9144 5.87675 36.9756 5.75916 37.068 5.66858C37.6047 5.12405 38.1405 4.57913 38.6756 4.03382C39.0828 3.61714 39.0828 3.35198 38.6756 2.92583C38.1559 2.39078 37.6244 1.86046 37.1071 1.32777C36.7603 0.965544 36.8384 0.499146 37.2657 0.276601C37.5025 0.14994 37.7736 0.207945 38.0304 0.462451C38.6827 1.11233 39.3326 1.76457 39.9801 2.42274C40.173 2.61806 40.3731 2.80627 40.5577 3.00869C40.8478 3.32475 40.8679 3.61951 40.5755 3.92373C39.7232 4.80839 38.8606 5.68199 37.9878 6.54455C37.8718 6.65938 37.6848 6.69962 37.5321 6.7742Z" fill="#737373"/>
<path d="M69.7956 0.784225C71.3676 0.784225 72.5561 1.13935 73.554 2.02124C73.8606 2.29351 73.8997 2.56458 73.6854 2.81436C73.5434 2.98008 73.193 3.05939 72.8947 2.7966C71.8719 1.89695 70.6384 1.69571 69.3434 1.8425C68.529 1.9254 67.7614 2.26299 67.1499 2.80725C66.8871 3.044 66.5841 3.03335 66.39 2.81554C66.1745 2.57879 66.1947 2.30653 66.4823 2.04965C67.3907 1.23016 68.5722 0.778948 69.7956 0.784225V0.784225Z" fill="#737373"/>
<path d="M70.0472 7.7627C69.8328 7.76694 69.6198 7.72847 69.4204 7.64954C69.221 7.57061 69.0394 7.4528 68.886 7.30296C68.7327 7.15312 68.6107 6.97425 68.5271 6.77679C68.4436 6.57932 68.4002 6.36721 68.3994 6.1528C68.4046 5.72244 68.5769 5.31097 68.88 5.00543C69.1831 4.69989 69.5932 4.52425 70.0235 4.51567C70.9776 4.49081 71.6808 5.33364 71.6808 6.14451C71.6654 7.00628 70.9587 7.80531 70.0472 7.7627ZM69.5003 6.15872C69.5003 6.49609 69.724 6.72455 70.0413 6.71981C70.1151 6.71813 70.1878 6.70184 70.2552 6.6719C70.3227 6.64195 70.3836 6.59893 70.4343 6.54533C70.485 6.49173 70.5247 6.42861 70.5509 6.35961C70.5771 6.29061 70.5893 6.2171 70.587 6.14333C70.5893 6.06933 70.5764 5.99565 70.549 5.92686C70.5217 5.85808 70.4804 5.79565 70.4279 5.74347C70.3754 5.69129 70.3127 5.65047 70.2438 5.62354C70.1748 5.59662 70.101 5.58417 70.0271 5.58697C69.6921 5.59052 69.4932 5.80951 69.4967 6.15872H69.5003Z" fill="#737373"/>
<path d="M70.0905 2.49951C70.9676 2.53384 71.8128 2.7623 72.5065 3.40508C72.7575 3.64183 72.8013 3.96618 72.6107 4.17688C72.3988 4.41363 72.1206 4.40653 71.8294 4.17688C71.4921 3.89141 71.0905 3.69199 70.6592 3.59571C70.2279 3.49943 69.7797 3.50916 69.353 3.62407C68.9339 3.71612 68.5445 3.91144 68.2201 4.19227C67.9609 4.41837 67.6531 4.4089 67.4566 4.19227C67.3662 4.0803 67.3238 3.93701 67.3389 3.79386C67.354 3.65071 67.4253 3.5194 67.5371 3.42876C68.2474 2.76941 69.102 2.522 70.0905 2.49951Z" fill="#737373"/>
</svg>

<svg width="92" height="19" fill="none" xmlns="http://www.w3.org/2000/svg"><path d="M20.232 2.738H36.89c.529 0 .76.146.865.539.118.428-.108.807-.542.885-.196.029-.394.04-.592.032H4.046c-.614 0-1.166.107-1.625.55a2.003 2.003 0 0 0-.635 1.439c-.018.779 0 1.559-.01 2.338 0 .23.088.284.297.281.72-.01 1.44-.007 2.16 0 .536 0 .828.483.6.967a.474.474 0 0 1-.467.295c-.738-.007-1.48.01-2.218 0-.284-.006-.374.089-.373.372.008 2.249 0 4.498.01 6.747 0 .328-.073.584-.389.72-.37.16-.747.154-1.045-.118-.118-.112-.17-.35-.172-.53a2183.5 2183.5 0 0 1-.007-9.647v-1.42c.026-1.477 1.102-2.91 2.522-3.306a4.406 4.406 0 0 1 1.17-.125c5.455-.017 10.911-.023 16.368-.02z" fill="#737373"/><path d="M61.783 10.08c.678-1.027 1.595-1.485 2.741-1.373 1.184.118 2.037.786 2.621 1.811.33.597.496 1.27.483 1.952v4.735c0 .542-.263.721-.797.75-.534.03-.815-.251-.816-.767v-4.706c0-.947-.434-1.64-1.259-2.096-1.073-.592-2.334 0-2.75.987a2.84 2.84 0 0 0-.23 1.038c-.025 1.608-.011 3.215-.012 4.823 0 .445-.302.723-.8.72-.463 0-.804-.259-.802-.717.012-4.39.014-8.78.007-13.169 0-.625.567-.981 1.153-.726a.665.665 0 0 1 .45.69c-.015 1.883-.008 3.767-.007 5.652-.001.113.01.226.018.396zm25.757 3.784c-.681 0-1.362.007-2.042 0-.246 0-.328.092-.33.33-.02 1.557.908 2.421 2.477 2.559.806.07 1.521-.18 2.186-.619.229-.15.48-.202.719 0 .238.203.4.457.273.723a1.598 1.598 0 0 1-.602.673 4.818 4.818 0 0 1-3.114.545c-.866-.119-1.657-.402-2.316-.976-.632-.547-1.075-1.223-1.13-2.074-.063-.96-.143-1.928-.076-2.884.118-1.658 1.337-3.053 3.102-3.362 1.462-.256 2.697.17 3.636 1.311a3.179 3.179 0 0 1 .64 2.96.931.931 0 0 1-.884.745c-.845.053-1.692.073-2.538.107l-.001-.038zm-.356-1.097c.562 0 1.124-.01 1.686 0 .668.015.774-.462.665-.916-.011-.048-.038-.092-.046-.139-.28-1.503-1.914-2.13-3.203-1.449-.996.526-1.174 1.463-1.11 2.36 0 .053.152.133.237.136.587.014 1.178.007 1.77.007h.001zm-31.849 1.097c-.69 0-1.381.008-2.071 0-.222 0-.274.07-.288.287-.105 1.679 1.076 2.494 2.431 2.605a3.21 3.21 0 0 0 2.038-.512c.542-.344.71-.329 1.043.06.266.31.248.525-.02.842-.356.416-.83.611-1.328.766-.86.27-1.775.307-2.653.108-1.687-.379-3.108-1.585-3.096-3.598 0-.65.024-1.302 0-1.953-.073-1.671 1.057-3.039 2.486-3.551 1.691-.609 3.607.016 4.511 1.539.465.783.631 1.629.413 2.52-.1.415-.4.77-.888.804-.854.059-1.712.077-2.568.112l-.01-.03zm-2.33-1.114c.081.006.158.015.237.015h3.368c.615 0 .78-.201.719-.745a3.075 3.075 0 0 0-.11-.537c-.423-1.462-2.142-1.848-3.252-1.153-.91.57-1.074 1.43-.961 2.42z" fill="#3A3A3A"/><path d="M39.006 13.87c-.68 0-1.361.007-2.04 0-.23 0-.295.072-.31.304-.104 1.657 1.073 2.457 2.412 2.572a3.165 3.165 0 0 0 1.977-.464c.113-.073.232-.14.355-.197a.572.572 0 0 1 .76.195c.224.295.238.565.008.836-.355.424-.829.632-1.34.792a5.108 5.108 0 0 1-2.71.1c-1.23-.28-2.224-.92-2.762-2.102a3.497 3.497 0 0 1-.279-1.217c-.045-.756-.016-1.518-.018-2.276 0-1.594.789-2.693 2.18-3.359 1.96-.937 4.317-.023 5.076 1.942.263.633.313 1.335.14 1.999-.125.46-.427.77-.913.801-.844.057-1.692.076-2.538.11l.002-.036zm-2.297-1.105h1.283c.808 0 1.617 0 2.425-.006.426 0 .604-.18.592-.591a2.987 2.987 0 0 0-.134-.778c-.337-1.043-1.673-1.687-2.697-1.316-1.172.417-1.725 1.418-1.47 2.691zm-8.818-.721c0 .76.009 1.52 0 2.278a3.811 3.811 0 0 1-2.84 3.67c-2.178.617-4.38-.953-4.694-3.002a6.113 6.113 0 0 1-.076-.88c-.008-1.5 0-2.999 0-4.499 0-.418.14-.63.486-.75.384-.133.814-.04 1.012.266.081.154.12.328.11.502.009 1.55 0 3.098.008 4.646 0 .958.424 1.69 1.26 2.14 1.086.58 2.476.031 2.908-1.144.132-.359.203-.736.21-1.118.024-1.53.009-3.057.011-4.587 0-.498.277-.762.79-.766.515-.003.815.282.816.785v2.459zm-14.705.117v2.22c.008 1.493-.721 2.567-1.976 3.27-1.993 1.116-4.531.15-5.327-2.003a3.699 3.699 0 0 1-.228-1.197c-.025-1.648-.012-3.294-.01-4.942 0-.433.31-.71.787-.71.455 0 .81.31.81.71v4.942c.006 1.209 1.09 2.24 2.293 2.195.797-.03 1.678-.699 1.91-1.482.081-.271.124-.553.126-.836.012-1.58.006-3.157.007-4.735 0-.383.148-.61.474-.727.393-.143.82-.07 1.027.212.07.116.103.25.097.384.013.904.01 1.801.01 2.699z" fill="#737373"/><path d="M46.928 15.497c.188-.49.38-.979.562-1.471.369-.998.732-1.998 1.103-2.996.236-.645.489-1.288.73-1.932.088-.237.27-.367.498-.308.3.073.586.191.85.35.237.144.191.425.107.644-.395 1.035-.809 2.064-1.216 3.095l-1.42 3.6c-.141.355-.28.71-.407 1.077-.167.466-.661.692-1.163.551-.311-.088-.439-.314-.542-.582l-1.065-2.753c-.474-1.211-.955-2.42-1.43-3.631-.167-.432-.322-.87-.492-1.302-.182-.474-.118-.69.306-.91a1.42 1.42 0 0 1 .535-.144c.407-.028.504.06.643.42.364.94.693 1.893 1.042 2.84.427 1.152.861 2.303 1.292 3.453h.067zm25.392-2.089c.051-.635.06-1.277.159-1.906.176-1.124.767-1.997 1.834-2.433 1.44-.592 2.88-.572 4.236.277.438.273.585.65.336 1.08-.248.431-.516.51-.917.243a2.948 2.948 0 0 0-1.894-.516c-.904.061-1.617.418-1.954 1.302-.093.26-.142.532-.145.807-.019.75-.032 1.5 0 2.25.056 1.316.761 2.038 2.118 2.14.759.059 1.413-.194 2.043-.583.393-.236.912.058.972.522.053.406-.17.656-.474.855-.924.612-1.952.75-3.029.637-.734-.077-1.42-.295-2.005-.766a3.258 3.258 0 0 1-1.009-1.49c-.286-.785-.212-1.603-.27-2.419z" fill="#3A3A3A"/><path d="M14.888 10.906V6.349c0-.473.294-.743.785-.74.514 0 .811.279.811.758 0 .721.007 1.44 0 2.16 0 .208.064.275.27.273.662-.01 1.322-.007 1.983 0a.65.65 0 0 1 .556.993.473.473 0 0 1-.45.268c-.691-.012-1.382 0-2.072-.009-.224 0-.287.072-.286.289.007 1.628 0 3.255.007 4.883 0 .933.499 1.249 1.255 1.308.294.023.592.007.887.013.401.01.682.251.71.606.034.455-.163.759-.599.787-.963.062-1.927.064-2.789-.481a2.013 2.013 0 0 1-.947-1.389 6.781 6.781 0 0 1-.118-1.135c-.014-1.339-.003-2.685-.003-4.027z" fill="#737373"/><path d="M81.963 10.616v6.568c0 .516-.279.782-.804.772-.507-.01-.798-.296-.8-.788 0-4.37-.001-8.74-.005-13.108 0-.395.175-.624.512-.743.337-.12.876.027 1.018.278a.96.96 0 0 1 .076.453c.005 2.189.006 4.378.003 6.568z" fill="#3A3A3A"/><path d="M31.096 10.086c.401-.465.811-.873 1.353-1.135.602-.293 1.24-.307 1.879-.248.355.033.551.404.516.843a.646.646 0 0 1-.638.606c-.48.01-.967-.044-1.42.168-1 .46-1.54 1.263-1.57 2.336a62.102 62.102 0 0 0 0 4.38c.022.674-.525 1.065-1.138.883-.281-.084-.464-.245-.497-.547a2.714 2.714 0 0 1-.017-.295V9.65c0-.692.474-1.014 1.125-.781a.553.553 0 0 1 .417.572c-.013.213-.01.428-.01.645z" fill="#737373"/><path d="M69.27 13.356V9.512c0-.474.26-.705.769-.71.509-.007.829.272.829.71v7.718c0 .432-.337.74-.817.722-.44-.016-.802-.204-.791-.727.026-1.288.01-2.58.01-3.869z" fill="#3A3A3A"/><path d="M40.446 6.776c-.355-.016-.53-.227-.644-.487-.13-.293.057-.512.236-.702.474-.5.948-1.012 1.47-1.47.448-.397.428-.884 0-1.278-.521-.473-1.011-.984-1.497-1.494-.19-.197-.347-.43-.176-.737.145-.265.347-.437.654-.377.16.036.308.115.425.23.85.841 1.694 1.69 2.53 2.547.294.301.294.668 0 .971-.843.859-1.693 1.71-2.55 2.552-.123.114-.3.166-.448.245z" fill="#737373"/><path d="M37.532 6.774a.647.647 0 0 1-.582-.395.61.61 0 0 1 .118-.71l1.608-1.635c.407-.417.407-.682 0-1.108-.52-.535-1.052-1.066-1.569-1.598-.347-.362-.269-.829.159-1.051.236-.127.508-.07.764.185.653.65 1.303 1.303 1.95 1.96.193.196.393.384.578.587.29.316.31.61.017.915-.852.884-1.714 1.758-2.587 2.62-.116.115-.303.156-.456.23zM69.796.784c1.572 0 2.76.355 3.758 1.237.307.273.346.544.131.793-.142.166-.492.245-.79-.017-1.023-.9-2.257-1.101-3.552-.955a3.892 3.892 0 0 0-2.193.965c-.263.237-.566.226-.76.009-.216-.237-.195-.51.092-.766A4.915 4.915 0 0 1 69.796.784zm.251 6.979a1.616 1.616 0 0 1-1.648-1.61 1.658 1.658 0 0 1 1.624-1.637c.955-.025 1.658.818 1.658 1.629-.016.861-.722 1.66-1.634 1.618zM69.5 6.159c0 .337.224.566.541.56a.558.558 0 0 0 .546-.576.54.54 0 0 0-.56-.556c-.335.004-.534.223-.53.572h.003z" fill="#737373"/><path d="M70.09 2.5c.878.034 1.723.262 2.416.905.251.237.295.561.105.772-.212.237-.49.23-.782 0a2.733 2.733 0 0 0-2.476-.553c-.42.092-.808.287-1.133.568-.26.226-.567.217-.763 0a.544.544 0 0 1 .08-.763c.71-.66 1.565-.907 2.553-.93z" fill="#737373"/></svg>
